X: 20095
T: Jimmy Peoples'
R: reel
M: 4/4
K: Dmajor
|:z|A,D (3DDD FEDF|AdcA GEEd|edcA dAGE|A,3E A,3 C|
DF (3FFF GECE|EdcA GEEd|efgb agBc|d2 ce d3:|
f|:a3 b fd (3ddd|afda fbba|ge (3eee cebe|(3ABc ge cAAf|
a3 f Adfb|afed gb (3bbb|ge (3eee cafd|Bcde c d3:|
|:FAfe dAFA|(3Bcd bf afdf|g2 bg B2 ge|c2 ec Ag,B,C|
DAfe dAFA|(3Bcd bg afda|gabg eafd|Bcde c d3:|

